src/images/single-assets/TETU.svg

<svg fill="none" height="222" viewBox="0 0 222 222" width="222" xmlns="http://www.w3.org/2000/svg"><circle cx="111" cy="111" fill="#1b184e" r="111"/><circle cx="111" cy="68" fill="#04a8f0" r="26"/><path clip-rule="evenodd" d="m111 109c-26.5096 0-48-21.4899-48-47.9995 1.0797-12.9952-9.9931-12.9998-12.9972-9.4735-.2291.2084-.4479.4453-.6549.7122-10.2471 13.2126-16.3479 29.8073-16.3479 47.8278 0 15.85 15.0169 25.954 30.8662 25.954h94.2678c15.849 0 30.866-10.104 30.866-25.954 0-18.0205-6.101-34.6152-16.348-47.8278-.211-.2726-.435-.514-.67-.7258-3.025-3.5088-14.06-3.4827-12.982 9.491-.002 26.5078-21.492 47.9956-48 47.9956z" fill="#686df1" fill-rule="evenodd"/><path d="m119.212 187.183 21.873-31.476c4.608-6.631-.137-15.707-8.212-15.707h-21.873-21.8734c-8.0746 0-12.8197 9.076-8.2119 15.707l21.8733 31.476c3.978 5.724 12.446 5.724 16.424 0z" fill="#04a8f0"/></svg>

<svg width="222" height="222" viewBox="0 0 222 222" fill="none" xmlns="http://www.w3.org/2000/svg">
<circle cx="111" cy="111" r="111" fill="#1B184E"/>
<circle cx="111" cy="68" r="26" fill="#04A8F0"/>
<path fill-rule="evenodd" clip-rule="evenodd" d="M111 109C84.4904 109 63 87.5101 63 61.0005C64.0797 48.0053 53.0069 48.0007 50.0028 51.527C49.7737 51.7354 49.5549 51.9723 49.3479 52.2392C39.1008 65.4518 33 82.0465 33 100.067C33 115.917 48.0169 126.021 63.8662 126.021H158.134C173.983 126.021 189 115.917 189 100.067C189 82.0465 182.899 65.4518 172.652 52.2392C172.441 51.9666 172.217 51.7252 171.982 51.5134C168.957 48.0046 157.922 48.0307 159 61.0044C158.998 87.5122 137.508 109 111 109Z" fill="#686DF1"/>
<path d="M119.212 187.183L141.085 155.707C145.693 149.076 140.948 140 132.873 140H111H89.1266C81.052 140 76.3069 149.076 80.9147 155.707L102.788 187.183C106.766 192.907 115.234 192.907 119.212 187.183Z" fill="#04A8F0"/>
</svg>
